dist/images/smartphone-icon.svg

<svg width="24" height="24" viewBox="0 0 24 24" fill="none" xmlns="http://www.w3.org/2000/svg">
<path fill-rule="evenodd" clip-rule="evenodd" d="M16.5 24H7.5C5.8425 24 4.5 22.6575 4.5 21V3C4.5 1.3425 5.8425 0 7.5 0H16.5C18.1575 0 19.5 1.3425 19.5 3V21C19.5 22.6575 18.1575 24 16.5 24ZM16.5 4.5H7.5V19.5H16.5V4.5Z" fill="#212627"/>
</svg>

<svg width="24" height="24" fill="none" xmlns="http://www.w3.org/2000/svg"><path fill-rule="evenodd" clip-rule="evenodd" d="M16.5 24h-9a3 3 0 01-3-3V3a3 3 0 013-3h9a3 3 0 013 3v18a3 3 0 01-3 3zm0-19.5h-9v15h9v-15z" fill="#212627"/></svg>
